!!!COM:	Bach, Johann Sebastian
!!!CDT:	1685/02/21/-1750/07/28/
!!!OTL@@DE:	Das neugeborne Kindelein
!!!PC#:	178
!!!ONB: Same as chorale 53
!!!AGN:	chorale
**kern	**kern	**kern	**kern
*ICvox	*ICvox	*ICvox	*ICvox
*Ibass	*Itenor	*Ialto	*Isoprn
*I"Bass	*I"Tenor	*I"Alto	*I"Soprano
*clefF4	*clefGv2	*clefG2	*clefG2
*k[b-e-]	*k[b-e-]	*k[b-e-]	*k[b-e-]
*g:	*g:	*g:	*g:
*M3/4	*M3/4	*M3/4	*M3/4
*MM100	*MM100	*MM100	*MM100
=1-	=1-	=1-	=1-
8GL	4B-	4d	4g
8AJ	.	.	.
4B-	4d	8gL	4g
.	.	8aJ	.
8AL	4d	4b-	4g
8GJ	.	.	.
=2	=2	=2	=2
2F#	2d	2a	4.dd
.	.	.	8cc
4G	8dL	4g	4b-
.	8cJ	.	.
=3	=3	=3	=3
4BB-	4B-	4g	4dd
4AA	4c	4f#	4cc
4GG	4d	4g	4b-
=4	=4	=4	=4
2.D;	2.d;	2.f#;	2.a;
=5	=5	=5	=5
4B-	4d	8gL	4dd
.	.	8aJ	.
8AL	4g	4b-	4dd
8GJ	.	.	.
4c#	4g	4b-	4ee
=6	=6	=6	=6
4d	4f	2a	2ff
4D	4B	.	.
4E	4c#	4g	4ee
=7	=7	=7	=7
8FL	4d	4f	4dd
8GJ	.	.	.
4A	2A	2e	2cc#
4AA	.	.	.
=8	=8	=8	=8
2.D;	2.A;	2.f#;	2.dd;
=9	=9	=9	=9
4GG	4B-	4g	4dd
4G	4A	4e-X	4cc
4F#	4A	4d	4a
=10	=10	=10	=10
4.G	4G	4d	4.b-
.	4e-	4g	.
8A	.	.	8cc
4B-	4d	4f	4dd
=11	=11	=11	=11
4E-	4e-	4g	4cc
4F	4d	4f	4b-
4FF	4c	4f	4a
=12	=12	=12	=12
2.BB-;	2.d;	2.f;	2.b-;
=13	=13	=13	=13
4B-	4d	4b-	4ff
4E-	4c	4b-	4gg
4F	4c	4a	4ff
=14	=14	=14	=14
2F#	4A	2a	4.dd
.	4d	.	.
.	.	.	8cc
4G	4d	4g	4b-
=15	=15	=15	=15
4C	4c	4e-	4a
4D	4B-	4d	4g
4D	4A	4d	4f#
=16	=16	=16	=16
2.GG;	2.B;	2.d;	2.g;
==	==	==	==
*-	*-	*-	*-
!!!hum2abc: -Q ''
!!!title: @{PC#}. @{OTL@@DE}
!!!YOR1: 371 vierstimmige Choralges&auml;nge von Johann Sebastian Bach, 
!!!YOR2: 4th ed. by Alfred D&ouml;rffel (Leipzig: Breitkopf und H&auml;rtel, 
!!!YOR2: c.1875). 178 pp. Plate "V.A.10".  reprint: J.S. Bach, 371 Four-Part 
!!!YOR4: Chorales (New York: Associated Music Publishers, Inc., c.1940).
!!!SMS: B&H, 4th ed, Alfred D&ouml;rffel, c.1875, plate V.A.10
!!!EED:  Craig Stuart Sapp
!!!EEV:  2009/05/22
